modules/hawcons-filled/icons/icon-5-thumb-down.svg

<?xml version="1.0" encoding="UTF-8" standalone="no"?>
<svg width="32px" height="32px" viewBox="0 0 32 32" version="1.1" xmlns="http://www.w3.org/2000/svg" xmlns:xlink="http://www.w3.org/1999/xlink" xmlns:sketch="http://www.bohemiancoding.com/sketch/ns">
    <!-- Generator: Sketch 3.0.3 (7891) - http://www.bohemiancoding.com/sketch -->
    <title>icon 5 thumb down</title>
    <desc>Created with Sketch.</desc>
    <defs></defs>
    <g id="Page-1" stroke="none" stroke-width="1" fill="none" fill-rule="evenodd" sketch:type="MSPage">
        <g id="icon-5-thumb-down" sketch:type="MSArtboardGroup" fill="#929292">
            <path d="M10,3 L19.7508378,3 L23.4983244,3 C24.3276769,3 25,3.66579723 25,4.5 C25,5.32842712 24.3288106,6 23.4983244,6 L22,6 L22,7 L25.5069036,7 C26.331518,7 27,7.66579723 27,8.5 C27,9.32842712 26.3361142,10 25.5069036,10 L23,10 L23,11 L23,11 L26.5069036,11 C27.331518,11 28,11.6657972 28,12.5 C28,13.3284271 27.3361142,14 26.5069036,14 L24,14 L24,15 L27.5069036,15 C28.331518,15 29,15.6657972 29,16.5 C29,17.3284271 28.3361142,18 27.5069036,18 L20.2999878,18 L20.2999878,18 C21.5007324,23.5 21.1514893,29.0000004 18,29 C15.1291504,28.9999996 16.9374527,24.6737787 15.3710938,21.6987305 C13.804739,18.7236908 10.5000187,18.0000041 10.5,18 L10,18 L10,3 L10,3 L10,3 Z M4.99791312,18 C3.89449617,18 3,17.1066027 3,16.0081158 L3,4.99188419 C3,3.89179693 3.89826062,3 4.99791312,3 L9,3 L9,18 L4.99791312,18 L4.99791312,18 Z M6,5 C6.55228478,5 7,5.44771522 7,6 C7,6.55228478 6.55228478,7 6,7 C5.44771522,7 5,6.55228478 5,6 C5,5.44771522 5.44771522,5 6,5 L6,5 L6,5 Z" id="thumb-down" sketch:type="MSShapeGroup"></path>
        </g>
    </g>
</svg>

<svg width="32" height="32" viewBox="0 0 32 32" xmlns="http://www.w3.org/2000/svg"><path d="M10 3H23.498a1.5 1.5 0 0 1 0 3H22v1h3.507C26.332 7 27 7.666 27 8.5c0 .828-.664 1.5-1.493 1.5H23v1h3.507c.825 0 1.493.666 1.493 1.5 0 .828-.664 1.5-1.493 1.5H24v1h3.507c.825 0 1.493.666 1.493 1.5 0 .828-.664 1.5-1.493 1.5H20.3c1.2 5.5.851 11-2.3 11-2.87 0-1.063-4.326-2.629-7.301C13.805 18.724 10.5 18 10.5 18H10V3zM4.998 18A1.996 1.996 0 0 1 3 16.008V4.992C3 3.892 3.898 3 4.998 3H9v15H4.998zM6 5a1 1 0 1 1 0 2 1 1 0 0 1 0-2z" fill="#929292" fill-rule="evenodd"/></svg>
